src/standard/toolbox.svg

<svg xmlns="http://www.w3.org/2000/svg" viewBox="0 0 36 36">
  <path d="M21 19.38h-6a.62.62 0 0 0 0 1.24h6a.62.62 0 0 0 0-1.24Z"/>
  <path d="M31.62 13a.59.59 0 0 0-.18-.44l-3-3a.6.6 0 0 0-.44-.18h-3.48l-.75-3.51a.62.62 0 0 0-.61-.49H12.84a.62.62 0 0 0-.61.49l-.75 3.51H8a.6.6 0 0 0-.44.18l-3 3a.59.59 0 0 0-.18.44v17a.62.62 0 0 0 .62.62h26a.62.62 0 0 0 .62-.62ZM13.35 6.62h9.3l.59 2.76H12.76Zm17 22.76H5.62v-8.76H9a.62.62 0 1 0 0-1.24H5.62v-6.12l2.64-2.64h19.48l2.64 2.64v6.12H27a.62.62 0 0 0 0 1.24h3.38v8.76Z"/>
  <path d="M13 17.38h-2a.62.62 0 0 0-.62.62v4a.62.62 0 0 0 .62.62h2a.62.62 0 0 0 .62-.62v-4a.62.62 0 0 0-.62-.62Zm-.62 4h-.76v-2.76h.76Zm12.62-4h-2a.62.62 0 0 0-.62.62v4a.62.62 0 0 0 .62.62h2a.62.62 0 0 0 .62-.62v-4a.62.62 0 0 0-.62-.62Zm-.62 4h-.76v-2.76h.76Z"/>
</svg>

<svg id="a022f88a-6fea-4535-bb88-4ff214810725" data-name="Icon" xmlns="http://www.w3.org/2000/svg" viewBox="0 0 36 36">
  <title>Toolbox icon - Black</title>
<desc>repair, wrench, tools, fix, work, construction, options, edit, settings, hammer, carry, objects</desc>
<metadata><?xpacket begin="﻿" id="W5M0MpCehiHzreSzNTczkc9d"?>
<x:xmpmeta xmlns:x="adobe:ns:meta/" x:xmptk="Adobe XMP Core 8.0-c001 1.000000, 0000/00/00-00:00:00        ">
   <rdf:RDF xmlns:rdf="http://www.w3.org/1999/02/22-rdf-syntax-ns#">
      <rdf:Description rdf:about=""
            xmlns:xmp="http://ns.adobe.com/xap/1.0/"
            xmlns:dc="http://purl.org/dc/elements/1.1/"
            xmlns:cq="http://www.day.com/jcr/cq/1.0"
            xmlns:tiff="http://ns.adobe.com/tiff/1.0/">
         <xmp:rhcc-effective-on>2023-12-08T17:36:36.918Z</xmp:rhcc-effective-on>
         <xmp:rhcc-metadata-complete-moderator>pending</xmp:rhcc-metadata-complete-moderator>
         <xmp:rhcc-translation-id>TRA6c4979fa-2e5e-424c-abba-dc514fbae249</xmp:rhcc-translation-id>
         <xmp:brand-content-type>Icon</xmp:brand-content-type>
         <xmp:CreateDate>2023-12-08T17:36:36.918Z</xmp:CreateDate>
         <xmp:rhcc-effective-on-set-on-upload>true</xmp:rhcc-effective-on-set-on-upload>
         <xmp:rhcc-metadata-complete-uploader>pending</xmp:rhcc-metadata-complete-uploader>
         <xmp:rhcc-file-last-modified>2023-12-08T17:38:14.802Z</xmp:rhcc-file-last-modified>
         <xmp:rhcc-audience>rhcc-audience:internal</xmp:rhcc-audience>
         <xmp:rhcc-rights-restricted>no</xmp:rhcc-rights-restricted>
         <xmp:brand-content-subtype>Icon</xmp:brand-content-subtype>
         <xmp:rhcc-derivative-id>DER6c4979fa-2e5e-424c-abba-dc514fbae249</xmp:rhcc-derivative-id>
         <xmp:brand-logo-color>Black</xmp:brand-logo-color>
         <xmp:rhcc-notify-portal-subscribers-on-change>yes</xmp:rhcc-notify-portal-subscribers-on-change>
         <dc:format>image/svg+xml</dc:format>
         <dc:modified>2024-02-09T20:33:27.880Z</dc:modified>
         <dc:title>
            <rdf:Alt>
               <rdf:li xml:lang="x-default">Toolbox icon - Black</rdf:li>
            </rdf:Alt>
         </dc:title>
         <dc:description>
            <rdf:Alt>
               <rdf:li xml:lang="x-default">repair, wrench, tools, fix, work, construction, options, edit, settings, hammer, carry, objects</rdf:li>
            </rdf:Alt>
         </dc:description>
         <cq:lastReplicationAction_scene7>Activate</cq:lastReplicationAction_scene7>
         <cq:lastReplicationAction_publish>Activate</cq:lastReplicationAction_publish>
         <cq:lastReplicated_publish>2024-02-09T22:21:04.142Z</cq:lastReplicated_publish>
         <cq:lastReplicatedBy>workflow-process-service</cq:lastReplicatedBy>
         <cq:lastReplicationAction>Activate</cq:lastReplicationAction>
         <cq:lastReplicatedBy_publish>workflow-process-service</cq:lastReplicatedBy_publish>
         <cq:isDelivered>true</cq:isDelivered>
         <cq:lastReplicated>2024-02-09T22:21:04.142Z</cq:lastReplicated>
         <cq:lastReplicatedBy_scene7>workflow-process-service</cq:lastReplicatedBy_scene7>
         <cq:lastReplicated_scene7>2024-02-09T22:21:04.142Z</cq:lastReplicated_scene7>
         <tiff:ImageLength>36</tiff:ImageLength>
         <tiff:ImageWidth>36</tiff:ImageWidth>
      </rdf:Description>
   </rdf:RDF>
</x:xmpmeta>
                                                                                                    
                                                                                                    
                                                                                                    
                                                                                                    
                                                                                                    
                                                                                                    
                                                                                                    
                                                                                                    
                                                                                                    
                                                                                                    
                                 
<?xpacket end="w"?></metadata>
<g>
    <path d="M21,19.38H15a.62.62,0,0,0,0,1.24h6A.62.62,0,0,0,21,19.38Z"/>
    <path d="M31.62,13a.59.59,0,0,0-.18-.44l-3-3A.6.6,0,0,0,28,9.38H24.52l-.75-3.51a.62.62,0,0,0-.61-.49H12.84a.62.62,0,0,0-.61.49l-.75,3.51H8a.6.6,0,0,0-.44.18l-3,3a.59.59,0,0,0-.18.44V30a.62.62,0,0,0,.62.62H31a.62.62,0,0,0,.62-.62ZM13.35,6.62h9.3l.59,2.76H12.76Zm17,22.76H5.62V20.62H9a.62.62,0,1,0,0-1.24H5.62V13.26l2.64-2.64H27.74l2.64,2.64v6.12H27a.62.62,0,0,0,0,1.24h3.38v8.76Z"/>
    <path d="M13,17.38H11a.62.62,0,0,0-.62.62v4a.62.62,0,0,0,.62.62h2a.62.62,0,0,0,.62-.62V18A.62.62,0,0,0,13,17.38Zm-.62,4h-.76V18.62h.76Z"/>
    <path d="M25,17.38H23a.62.62,0,0,0-.62.62v4a.62.62,0,0,0,.62.62h2a.62.62,0,0,0,.62-.62V18A.62.62,0,0,0,25,17.38Zm-.62,4h-.76V18.62h.76Z"/>
  </g>
</svg>
